X:332
T:Up against the Buachalawns
T:Up against the Boughalauns
T:Miss Lyon's fancy
T:The Knocknagree reel
T:Sonny Brogan's favorite
R:Reel
B:Ceol Rince 3 #203
S:Chieftain's 9, Trk. 8
D:Chieftain's 9, Trk. 8
Z:Transcription, chords:Mike Long
M:C|
L:1/8
K:D
"D"D2FA DAFA|"D"dfed "A"cABc|"G"~d2cA BGAF|"G"~G2 GF "A"GFEF|\
"D"D2FA DAFA|"D"dfed "A"cABc|
"G"~d2cA BGAF|"A"GEAG "D"FDD2:|\
|:"D"a2fa dafa|"A"gfed cdeg|"D"a2fa dafa|
"A"bgeg "D"fddf|\
"D"a2fa dafa|"A"gfed cdeg|"D"afec "G"dBAF|[1 "A"GEAG "D"FDD2:|[2 "G"~G3F "A"GFEF|]
